X: 2298
M: C
L: 1/8
K: D
[1 GBFA | G2E2 EGFE :|[2 GBEG | F2D2D2 ::\
(de) |\
f2f2 gfed |
cdec A2(Bc) |\
d2B2 Bcde | f2B2 B2d2 |\
edcB ABde | f2d2d2 :|


